X: 3604
T: Bill Harte's
R: jig
M: 6/8
K: Dmixolydian
D3 ~A3|BAG ~A3|D2D ~A3|BAG ~E3|
D3 ~A3|BAG ABc|dcB cBA|BAG E2D:|
dcB cBA|BAG ABc|dcB cBA|BAG ~E3|
dcB cBA|BAG ABc|ded cBA|BAG E2D:|

